src/assets/outline/Notification.svg

<svg width="24" height="24" viewBox="0 0 24 24"  xmlns="http://www.w3.org/2000/svg">
<path d="M12.0199 20.5299C9.68987 20.5299 7.35987 20.1599 5.14987 19.4199C4.30987 19.1299 3.66987 18.5399 3.38987 17.7699C3.09987 16.9999 3.19987 16.1499 3.65987 15.3899L4.80987 13.4799C5.04987 13.0799 5.26987 12.2799 5.26987 11.8099V8.91992C5.26987 5.19992 8.29987 2.16992 12.0199 2.16992C15.7399 2.16992 18.7699 5.19992 18.7699 8.91992V11.8099C18.7699 12.2699 18.9899 13.0799 19.2299 13.4899L20.3699 15.3899C20.7999 16.1099 20.8799 16.9799 20.5899 17.7699C20.2999 18.5599 19.6699 19.1599 18.8799 19.4199C16.6799 20.1599 14.3499 20.5299 12.0199 20.5299ZM12.0199 3.66992C9.12987 3.66992 6.76987 6.01992 6.76987 8.91992V11.8099C6.76987 12.5399 6.46987 13.6199 6.09987 14.2499L4.94987 16.1599C4.72987 16.5299 4.66987 16.9199 4.79987 17.2499C4.91987 17.5899 5.21987 17.8499 5.62987 17.9899C9.80987 19.3899 14.2399 19.3899 18.4199 17.9899C18.7799 17.8699 19.0599 17.5999 19.1899 17.2399C19.3199 16.8799 19.2899 16.4899 19.0899 16.1599L17.9399 14.2499C17.5599 13.5999 17.2699 12.5299 17.2699 11.7999V8.91992C17.2699 6.01992 14.9199 3.66992 12.0199 3.66992Z" />
<path d="M13.8801 3.93969C13.8101 3.93969 13.7401 3.92969 13.6701 3.90969C13.3801 3.82969 13.1001 3.76969 12.8301 3.72969C11.9801 3.61969 11.1601 3.67969 10.3901 3.90969C10.1101 3.99969 9.81011 3.90969 9.62011 3.69969C9.43011 3.48969 9.37011 3.18969 9.48011 2.91969C9.89011 1.86969 10.8901 1.17969 12.0301 1.17969C13.1701 1.17969 14.1701 1.85969 14.5801 2.91969C14.6801 3.18969 14.6301 3.48969 14.4401 3.69969C14.2901 3.85969 14.0801 3.93969 13.8801 3.93969Z" />
<path d="M12.02 22.8096C11.03 22.8096 10.07 22.4096 9.37002 21.7096C8.67002 21.0096 8.27002 20.0496 8.27002 19.0596H9.77002C9.77002 19.6496 10.01 20.2296 10.43 20.6496C10.85 21.0696 11.43 21.3096 12.02 21.3096C13.26 21.3096 14.27 20.2996 14.27 19.0596H15.77C15.77 21.1296 14.09 22.8096 12.02 22.8096Z" />
</svg>

<?xml version="1.0" encoding="UTF-8"?>
<svg width="24" height="24" viewBox="0 0 24 24" xmlns="http://www.w3.org/2000/svg">
 <path d="m12.02 20.53c-2.33 0-4.66-0.37-6.87-1.11-0.84-0.29-1.48-0.88-1.76-1.65-0.29-0.77-0.19-1.62 0.27-2.38l1.15-1.91c0.24-0.4 0.46-1.2 0.46-1.67v-2.89c0-3.72 3.03-6.75 6.75-6.75 3.72 0 6.75 3.03 6.75 6.75v2.89c0 0.46 0.22 1.27 0.46 1.68l1.14 1.9c0.43 0.72 0.51 1.59 0.22 2.38s-0.92 1.39-1.71 1.65c-2.2 0.74-4.53 1.11-6.86 1.11zm0-16.86c-2.89 0-5.25 2.35-5.25 5.25v2.89c0 0.73-0.3 1.81-0.67 2.44l-1.15 1.91c-0.22 0.37-0.28 0.76-0.15 1.09 0.12 0.34 0.42 0.6 0.83 0.74 4.18 1.4 8.61 1.4 12.79 0 0.36-0.12 0.64-0.39 0.77-0.75s0.1-0.75-0.1-1.08l-1.15-1.91c-0.38-0.65-0.67-1.72-0.67-2.45v-2.88c0-2.9-2.35-5.25-5.25-5.25z"/>
 <path d="m13.88 3.9397c-0.07 0-0.14-0.01-0.21-0.03-0.29-0.08-0.57-0.14-0.84-0.18-0.85-0.11-1.67-0.05-2.44 0.18-0.28 0.09-0.57999 0-0.76999-0.21s-0.25-0.51-0.14-0.78c0.41-1.05 1.41-1.74 2.55-1.74s2.14 0.68 2.55 1.74c0.1 0.27 0.05 0.57-0.14 0.78-0.15 0.16-0.36 0.24-0.56 0.24z"/>
 <path d="m12.02 22.81c-0.99 0-1.95-0.4-2.65-1.1-0.7-0.7-1.1-1.66-1.1-2.65h1.5c0 0.59 0.23998 1.17 0.65998 1.59s1 0.66 1.59 0.66c1.24 0 2.25-1.01 2.25-2.25h1.5c0 2.07-1.68 3.75-3.75 3.75z"/>
</svg>
